public/img/icons/data-dashboard-icon.svg

<svg fill="none" height="64" viewBox="0 0 64 64" width="64" xmlns="http://www.w3.org/2000/svg"><path d="m5 11h54v32c0 1.1046-.8954 2-2 2h-50c-1.10457 0-2-.8954-2-2z" fill="#fff" stroke="#000" stroke-linejoin="round" stroke-width="2"/><path d="m47 5h-40c-1.10457 0-2 .89543-2 2v4h54v-4c0-1.10457-.8954-2-2-2h-6" stroke="#000" stroke-linecap="round" stroke-linejoin="round" stroke-width="2"/><circle cx="9" cy="8" fill="#000" r="1"/><circle cx="12" cy="8" fill="#000" r="1"/><circle cx="15" cy="8" fill="#000" r="1"/><path d="m9 39h46" stroke="#000" stroke-linecap="round" stroke-width="2"/><g fill="#000"><rect height="16" rx="1" width="4" x="14" y="24"/><rect height="24" rx="1" width="4" x="30" y="16"/><rect height="20" rx="1" width="4" x="22" y="20"/><rect height="20" rx="1" width="4" x="46" y="20"/><rect height="16" rx="1" width="4" x="38" y="24"/><path d="m35 29c-8.8366 0-16 7.1634-16 16h32c0-8.8366-7.1634-16-16-16z" stroke="#000" stroke-width="2"/></g><circle cx="32" cy="43" fill="#fff" r="16"/><path d="m22 55.4907c2.7392 2.1959 6.2162 3.5093 10 3.5093 8.8366 0 16-7.1634 16-16s-7.1634-16-16-16-16 7.1634-16 16c0 3.7785 1.3097 7.251 3.5 9.9884" stroke="#000" stroke-linecap="round" stroke-width="2"/><path d="m34.8284 51.829c-1.5621 1.5621-4.0947 1.5621-5.6568 0s-1.5621-4.0947 0-5.6568 13.8284-8.1722 13.8284-8.1722-6.6095 12.2669-8.1716 13.829z" fill="#fff"/><path d="m43 38 .8803.4743c.2096-.3888.1391-.8691-.1732-1.1814-.3124-.3124-.7926-.3828-1.1815-.1732zm-8.8787 13.1219c-1.1716 1.1716-3.0711 1.1716-4.2426 0l-1.4142 1.4142c1.9526 1.9527 5.1184 1.9527 7.071 0zm-4.2426 0c-1.1716-1.1715-1.1716-3.071 0-4.2426l-1.4142-1.4142c-1.9527 1.9526-1.9527 5.1184 0 7.071zm0-4.2426c.1217-.1217.4129-.3496.8985-.6802.4662-.3176 1.0584-.6946 1.7366-1.1102 1.3553-.8306 3.0235-1.7968 4.6507-2.7185 1.6256-.9209 3.2035-1.7936 4.3754-2.4364.5858-.3213 1.0698-.5849 1.4072-.7681.1687-.0916.3007-.1631.3905-.2117.0449-.0243.0792-.0428.1022-.0552.0115-.0062.0202-.0109.026-.0141.0029-.0015.0051-.0027.0065-.0035.0007-.0003.0013-.0006.0016-.0008.0002-.0001.0003-.0002.0004-.0002.0001-.0001.0001-.0001-.4743-.8804s-.4745-.8803-.4746-.8802c-.0001 0-.0002.0001-.0004.0002-.0004.0002-.001.0006-.0018.001-.0015.0008-.0038.002-.0068.0037-.006.0032-.0149.008-.0267.0143-.0234.0127-.0582.0315-.1036.056-.0906.0491-.2237.1211-.3934.2133-.3395.1844-.826.4493-1.4146.7721-1.1769.6455-2.7632 1.5229-4.3994 2.4498-1.6347.926-3.3259 1.9053-4.7099 2.7534-.6915.4238-1.3139.8195-1.8174 1.1624-.4843.3298-.9181.6502-1.1869.9191zm13.1213-8.8793c-.8803-.4743-.8804-.4743-.8804-.4742s-.0001.0002-.0002.0003c-.0002.0004-.0005.0009-.0009.0016-.0007.0015-.0019.0036-.0035.0065-.0031.0058-.0078.0145-.014.0261-.0124.023-.031.0573-.0552.1022-.0486.0897-.1201.2218-.2117.3905-.1832.3374-.4468.8215-.7681 1.4073-.6426 1.1719-1.5153 2.7499-2.4361 4.3756-.9217 1.6272-1.8878 3.2955-2.7183 4.6509-.4156.6781-.7926 1.2704-1.1101 1.7367-.3307.4855-.5585.7768-.6802.8984l1.4142 1.4142c.2689-.2688.5893-.7026.9191-1.1869.3429-.5036.7386-1.126 1.1623-1.8175.8481-1.3841 1.8273-3.0753 2.7532-4.7101.9268-1.6363 1.8042-3.2227 2.4496-4.3996.3228-.5887.5877-1.0752.7721-1.4147.0921-.1698.1642-.3028.2132-.3935.0245-.0453.0433-.0801.056-.1036.0063-.0117.0111-.0206.0144-.0267.0016-.003.0028-.0052.0037-.0068.0004-.0007.0007-.0013.0009-.0017.0001-.0002.0002-.0004.0002-.0005.0001-.0001.0001-.0002-.8802-.4745z" fill="#000"/><path d="m22 43c0-5.5228 4.4772-10 10-10 2.7974 0 5.3265 1.1486 7.1414 3" stroke="#000" stroke-linecap="round" stroke-width="2"/><circle cx="32" cy="49" fill="#000" r="1"/></svg>

<svg width="64" height="64" viewBox="0 0 64 64" fill="none" xmlns="http://www.w3.org/2000/svg">
<path d="M5 11H59V43C59 44.1046 58.1046 45 57 45H7C5.89543 45 5 44.1046 5 43V11Z" fill="white" stroke="black" stroke-width="2" stroke-linejoin="round"/>
<path d="M47 5H7C5.89543 5 5 5.89543 5 7V11H59V7C59 5.89543 58.1046 5 57 5H51" stroke="black" stroke-width="2" stroke-linecap="round" stroke-linejoin="round"/>
<circle cx="9" cy="8" r="1" fill="black"/>
<circle cx="12" cy="8" r="1" fill="black"/>
<circle cx="15" cy="8" r="1" fill="black"/>
<path d="M9 39H55" stroke="black" stroke-width="2" stroke-linecap="round"/>
<rect x="14" y="24" width="4" height="16" rx="1" fill="black"/>
<rect x="30" y="16" width="4" height="24" rx="1" fill="black"/>
<rect x="22" y="20" width="4" height="20" rx="1" fill="black"/>
<rect x="46" y="20" width="4" height="20" rx="1" fill="black"/>
<rect x="38" y="24" width="4" height="16" rx="1" fill="black"/>
<path d="M35 29C26.1634 29 19 36.1634 19 45H51C51 36.1634 43.8366 29 35 29Z" fill="black" stroke="black" stroke-width="2"/>
<circle cx="32" cy="43" r="16" fill="white"/>
<path d="M22 55.4907C24.7392 57.6866 28.2162 59 32 59C40.8366 59 48 51.8366 48 43C48 34.1634 40.8366 27 32 27C23.1634 27 16 34.1634 16 43C16 46.7785 17.3097 50.251 19.5 52.9884" stroke="black" stroke-width="2" stroke-linecap="round"/>
<path d="M34.8284 51.829C33.2663 53.3911 30.7337 53.3911 29.1716 51.829C27.6095 50.2669 27.6095 47.7343 29.1716 46.1722C30.7337 44.6101 43 38 43 38C43 38 36.3905 50.2669 34.8284 51.829Z" fill="white"/>
<path d="M43 38L43.8803 38.4743C44.0899 38.0855 44.0194 37.6052 43.7071 37.2929C43.3947 36.9805 42.9145 36.9101 42.5256 37.1197L43 38ZM34.1213 51.1219C32.9497 52.2935 31.0502 52.2935 29.8787 51.1219L28.4645 52.5361C30.4171 54.4888 33.5829 54.4888 35.5355 52.5361L34.1213 51.1219ZM29.8787 51.1219C28.7071 49.9504 28.7071 48.0509 29.8787 46.8793L28.4645 45.4651C26.5118 47.4177 26.5118 50.5835 28.4645 52.5361L29.8787 51.1219ZM29.8787 46.8793C30.0004 46.7576 30.2916 46.5297 30.7772 46.1991C31.2434 45.8815 31.8356 45.5045 32.5138 45.0889C33.8691 44.2583 35.5373 43.2921 37.1645 42.3704C38.7901 41.4495 40.368 40.5768 41.5399 39.934C42.1257 39.6127 42.6097 39.3491 42.9471 39.1659C43.1158 39.0743 43.2478 39.0028 43.3376 38.9542C43.3825 38.9299 43.4168 38.9114 43.4398 38.899C43.4513 38.8928 43.46 38.8881 43.4658 38.8849C43.4687 38.8834 43.4709 38.8822 43.4723 38.8814C43.473 38.8811 43.4736 38.8808 43.4739 38.8806C43.4741 38.8805 43.4742 38.8804 43.4743 38.8804C43.4744 38.8803 43.4744 38.8803 43 38C42.5256 37.1197 42.5255 37.1197 42.5254 37.1198C42.5253 37.1198 42.5252 37.1199 42.525 37.12C42.5246 37.1202 42.524 37.1206 42.5232 37.121C42.5217 37.1218 42.5194 37.123 42.5164 37.1247C42.5104 37.1279 42.5015 37.1327 42.4897 37.139C42.4663 37.1517 42.4315 37.1705 42.3861 37.195C42.2955 37.2441 42.1624 37.3161 41.9927 37.4083C41.6532 37.5927 41.1667 37.8576 40.5781 38.1804C39.4012 38.8259 37.8149 39.7033 36.1787 40.6302C34.544 41.5562 32.8528 42.5355 31.4688 43.3836C30.7773 43.8074 30.1549 44.2031 29.6514 44.546C29.1671 44.8758 28.7333 45.1962 28.4645 45.4651L29.8787 46.8793ZM43 38C42.1197 37.5257 42.1196 37.5257 42.1196 37.5258C42.1196 37.5259 42.1195 37.526 42.1194 37.5261C42.1192 37.5265 42.1189 37.527 42.1185 37.5277C42.1178 37.5292 42.1166 37.5313 42.115 37.5342C42.1119 37.54 42.1072 37.5487 42.101 37.5603C42.0886 37.5833 42.07 37.6176 42.0458 37.6625C41.9972 37.7522 41.9257 37.8843 41.8341 38.053C41.6509 38.3904 41.3873 38.8745 41.066 39.4603C40.4234 40.6322 39.5507 42.2102 38.6299 43.8359C37.7082 45.4631 36.7421 47.1314 35.9116 48.4868C35.496 49.1649 35.119 49.7572 34.8015 50.2235C34.4708 50.709 34.243 51.0003 34.1213 51.1219L35.5355 52.5361C35.8044 52.2673 36.1248 51.8335 36.4546 51.3492C36.7975 50.8456 37.1932 50.2232 37.6169 49.5317C38.465 48.1476 39.4442 46.4564 40.3701 44.8216C41.2969 43.1853 42.1743 41.5989 42.8197 40.422C43.1425 39.8333 43.4074 39.3468 43.5918 39.0073C43.6839 38.8375 43.756 38.7045 43.805 38.6138C43.8295 38.5685 43.8483 38.5337 43.861 38.5102C43.8673 38.4985 43.8721 38.4896 43.8754 38.4835C43.877 38.4805 43.8782 38.4783 43.8791 38.4767C43.8795 38.476 43.8798 38.4754 43.88 38.475C43.8801 38.4748 43.8802 38.4746 43.8802 38.4745C43.8803 38.4744 43.8803 38.4743 43 38Z" fill="black"/>
<path d="M22 43C22 37.4772 26.4772 33 32 33C34.7974 33 37.3265 34.1486 39.1414 36" stroke="black" stroke-width="2" stroke-linecap="round"/>
<circle cx="32" cy="49" r="1" fill="black"/>
</svg>
